src/pages/elements/pictograms/images/11_Gradients_3_do.svg

<?xml version="1.0" encoding="UTF-8"?>
<svg width="288px" height="288px" viewBox="0 0 288 288" version="1.1" xmlns="http://www.w3.org/2000/svg" xmlns:xlink="http://www.w3.org/1999/xlink">
    <!-- Generator: Sketch 52.4 (67378) - http://www.bohemiancoding.com/sketch -->
    <title>Artboard</title>
    <desc>Created with Sketch.</desc>
    <defs>
        <linearGradient x1="12.3844113%" y1="112.901305%" x2="87.5983084%" y2="34.556046%" id="linearGradient-1">
            <stop stop-color="#0062FF" offset="0%"></stop>
            <stop stop-color="#CA8FFF" offset="100%"></stop>
        </linearGradient>
    </defs>
    <g id="Artboard" stroke="none" stroke-width="1" fill="none" fill-rule="evenodd">
        <rect id="Rectangle-3-Copy-45" fill="#FFFFFF" x="0" y="0" width="288" height="288"></rect>
        <g id="Group-37-Copy" transform="translate(52.000000, 52.000000)">
            <polygon id="Fill-1" points="0 184 184 184 184 0 0 0"></polygon>
            <path d="M72.46725,23.3315 C72.46725,29.13325 75.07775,34.5325 79.40175,38.155 C71.42075,40.38025 64.16425,44.641 58.581,50.43125 C52.4285,56.8195 45.94825,64.26 45.9425,64.26575 C44.3095,65.99075 43.4125,68.25625 43.4125,70.631 C43.4125,75.392 47.01775,82.36675 52.07775,82.867 C52.19275,82.8785 52.30775,82.89 52.42275,82.89 L66.92425,82.89 L66.92425,91.42875 L46.63825,110.50725 C42.573,115.26825 43.1365,122.45 47.8285,126.452 L72.32925,149.17025 C74.56025,151.07925 78.19425,152.12575 82.05825,151.8555 C85.1805,151.6715 87.93475,150.7515 89.907,149.268 L89.907,167.07 C89.907,167.1735 89.91275,167.28275 89.93575,167.3805 C90.0105,170.92825 91.4825,174.131 93.78825,176.5 L0,176.5 L0,180.64575 L184,180.64575 L184,176.5 L113.229,176.5 C115.59225,174.05625 117.07575,170.7385 117.07575,167.07 L117.07575,82.89 L131.56575,82.89 C131.68075,82.89 131.79575,82.8785 131.91075,82.867 C136.97075,82.361 140.576,75.392 140.576,70.631 C140.576,68.25625 139.679,65.99075 138.1035,64.33475 C138.0345,64.26 131.56575,56.8195 125.42475,50.45425 C120.07725,44.7445 112.677,40.41475 104.5925,38.155 C108.91075,34.5325 111.527,29.13325 111.527,23.3315 C111.527,12.67675 102.856,4 91.78725,4 C81.1325,4 72.46725,12.67675 72.46725,23.3315 Z M47.5525,70.631 C47.5525,69.31425 48.047,68.0665 49.013,67.04875 C49.0705,66.97975 55.48175,59.61975 61.5595,53.30625 C67.6315,47.01 75.8885,42.70325 84.8585,41.16225 C85.24375,41.15075 85.629,41.0185 85.9625,40.7885 C86.5605,40.3745 86.894,39.673 86.848,38.9485 C86.80775,38.362 86.53175,37.81575 86.07175,37.45925 C85.86475,37.28675 85.62325,37.17175 85.376,37.09125 C80.03425,34.59575 76.6015,29.22525 76.6015,23.3315 C76.6015,14.95375 83.41525,8.14 92.20125,8.14 C100.57325,8.14 107.387,14.95375 107.387,23.3315 C107.387,29.24825 103.93125,34.6245 98.578,37.11425 C98.34225,37.189 98.118,37.3155 97.9225,37.47075 C97.4625,37.833 97.175,38.385 97.1405,38.9715 C97.0945,39.696 97.428,40.386 98.026,40.8 C98.36525,41.03575 98.75625,41.16225 99.1645,41.168 C108.1805,42.72625 116.63875,47.125 122.42325,53.30625 C128.50675,59.61975 134.918,66.97975 135.03875,67.11775 C135.9415,68.0665 136.436,69.31425 136.436,70.631 C136.436,73.83375 133.699,78.75 131.33575,78.75 L94.06425,78.75 L94.06425,59.90725 C95.726,60.50525 97.53725,61.63225 99.19325,62.69025 C101.65425,64.26575 103.7875,65.6285 105.8805,65.64 L114.62625,65.64 C115.7705,65.64 116.69625,64.7085 116.69625,63.56425 C116.6905,62.42 115.76475,61.49425 114.62625,61.49425 L114.6205,61.49425 L105.892,61.5 C105.01225,61.49425 103.02275,60.2235 101.42425,59.2 C98.58375,57.38875 95.358,55.33025 91.94825,55.33025 C88.6305,55.33025 85.40475,57.38875 82.56425,59.2 C80.96575,60.2235 78.982,61.49425 78.11375,61.5 L69.36225,61.49425 C68.22375,61.49425 67.29225,62.42 67.29225,63.56425 C67.29225,64.7085 68.22375,65.64 69.36225,65.64 L78.12525,65.64 C80.201,65.6285 82.3285,64.26575 84.79525,62.69025 C86.43975,61.64375 88.2395,60.51675 89.9185,59.91875 L89.9185,78.75 L52.65275,78.75 C50.2895,78.75 47.5525,73.83375 47.5525,70.631 Z M75.0835,146.08825 L50.58275,123.36425 C47.564,120.77675 47.2075,116.217 49.634,113.35925 L70.4145,93.83225 C70.83425,93.4355 71.07,92.895 71.07,92.32 L71.07,82.89 L112.93,82.89 L112.93,167.07 C112.93,172.27375 108.698,176.5 103.5,176.5 C98.29625,176.5 94.07,172.27375 94.07,167.07575 C94.07,166.97225 94.0585,166.88025 94.047,166.7825 L94.047,141.3675 C94.093,140.804 94.093,140.23475 94.047,139.6655 L94.047,109.57 C94.047,108.742 93.55825,108.00025 92.79925,107.66675 L87.0665,105.2 C86.2845,104.86075 85.38175,105.04475 84.78375,105.64275 C84.17425,106.258 72.542,117.321 72.542,117.321 C72.1395,117.70625 71.898,118.23525 71.89225,118.793 C71.89225,119.3565 72.11075,119.897 72.51325,120.288 L87.4115,135.0655 C88.918,136.3535 89.76325,138.136 89.907,139.976 L89.907,141.13175 C89.79775,142.59225 89.23425,144.0355 88.19925,145.23725 C87.032,146.6115 84.5825,147.56025 81.81675,147.727 C81.5465,147.74425 81.282,147.75 81.0175,147.75 C78.55075,147.75 76.3025,147.12325 75.0835,146.08825 Z M76.94075,118.8505 C79.488,116.41825 84.51925,111.64 86.69275,109.547 L89.907,110.93275 L89.907,131.72475 L76.94075,118.8505 Z" id="Fill-2" fill="url(#linearGradient-1)"></path>
        </g>
    </g>
</svg>

<svg xmlns="http://www.w3.org/2000/svg" viewBox="0 0 288 288"><defs><linearGradient x1="12.384%" y1="112.901%" x2="87.598%" y2="34.556%" id="a"><stop stop-color="#0062FF" offset="0%"/><stop stop-color="#CA8FFF" offset="100%"/></linearGradient></defs><g fill="none" fill-rule="evenodd"><path fill="#FFF" d="M0 0h288v288H0z"/><path d="M52 236h184V52H52z"/><path d="M72.467 23.331a19.35 19.35 0 006.935 14.824c-7.981 2.225-15.238 6.486-20.821 12.276-6.153 6.389-12.633 13.829-12.639 13.835a9.228 9.228 0 00-2.53 6.365c0 4.761 3.606 11.736 8.666 12.236.115.011.23.023.345.023h14.501v8.539l-20.286 19.078c-4.065 4.761-3.502 11.943 1.19 15.945L72.33 149.17c2.231 1.91 5.865 2.956 9.73 2.686 3.121-.184 5.876-1.105 7.848-2.588v17.802c0 .103.006.213.029.31.074 3.548 1.546 6.751 3.852 9.12H0v4.146h184V176.5h-70.771c2.363-2.444 3.847-5.762 3.847-9.43V82.89h14.49c.115 0 .23-.011.345-.023 5.06-.506 8.665-7.475 8.665-12.236 0-2.375-.897-4.64-2.472-6.296-.07-.075-6.538-7.515-12.68-13.88-5.347-5.71-12.747-10.04-20.832-12.3 4.319-3.623 6.935-9.022 6.935-14.824C111.527 12.677 102.856 4 91.787 4c-10.655 0-19.32 8.677-19.32 19.331zm-24.914 47.3c0-1.317.494-2.564 1.46-3.582.058-.07 6.469-7.43 12.547-13.743 6.072-6.296 14.328-10.603 23.299-12.144.385-.011.77-.143 1.104-.373a2.078 2.078 0 00.885-1.84 2.054 2.054 0 00-.776-1.49 2.08 2.08 0 00-.696-.368 15.209 15.209 0 01-8.775-13.76c0-8.377 6.814-15.191 15.6-15.191 8.372 0 15.186 6.814 15.186 15.191 0 5.917-3.456 11.293-8.809 13.783a2.08 2.08 0 00-.656.357c-.46.362-.747.914-.781 1.5a2.058 2.058 0 00.885 1.829c.34.236.73.362 1.139.368 9.015 1.558 17.474 5.957 23.258 12.138 6.084 6.314 12.495 13.674 12.616 13.812a5.07 5.07 0 011.397 3.513c0 3.203-2.737 8.119-5.1 8.119H94.064V59.907c1.662.598 3.473 1.725 5.13 2.783 2.46 1.576 4.593 2.939 6.686 2.95h8.746a2.074 2.074 0 000-4.146h-.005l-8.729.006c-.88-.006-2.87-1.276-4.468-2.3-2.84-1.811-6.066-3.87-9.476-3.87-3.317 0-6.543 2.059-9.384 3.87-1.598 1.023-3.582 2.294-4.45 2.3l-8.752-.006a2.072 2.072 0 000 4.146h8.763c2.076-.011 4.204-1.374 6.67-2.95 1.645-1.046 3.445-2.173 5.123-2.771V78.75H52.653c-2.364 0-5.1-4.916-5.1-8.119zm27.53 75.457l-24.5-22.724c-3.019-2.587-3.375-7.147-.949-10.005l20.78-19.527c.42-.396.656-.937.656-1.512v-9.43h41.86v84.18c0 5.204-4.232 9.43-9.43 9.43-5.204 0-9.43-4.226-9.43-9.424 0-.104-.011-.196-.023-.293v-25.415c.046-.564.046-1.133 0-1.702V109.57c0-.828-.489-1.57-1.248-1.903l-5.733-2.467a2.066 2.066 0 00-2.282.443c-.61.615-12.242 11.678-12.242 11.678a2.076 2.076 0 00-.65 1.472c0 .563.219 1.104.621 1.495l14.898 14.777a7.176 7.176 0 012.496 4.911v1.156a7.084 7.084 0 01-1.708 4.105c-1.167 1.375-3.617 2.323-6.382 2.49-.27.017-.535.023-.8.023-2.466 0-4.715-.627-5.933-1.662zm1.858-27.237c2.547-2.433 7.578-7.211 9.752-9.304l3.214 1.386v20.792L76.941 118.85z" fill="url(#a)" transform="translate(52 52)"/></g></svg>
